X:1
T:Jesus Sweetly Saves (Wilder)
T:Jesus Sweetly Saves (Wilder)
T:Sage Wilder
T:Sage Wilder, 1903
T:Public Domain Courtesy of the Cyber Hymnal™
T:Public Domain Courtesy of the Cyber Hymnal™
C:Sage Wilder
Z:Public Domain
Z:Courtesy of the Cyber Hymnal™
%%score ( 1 2 ) ( 3 4 )
L:1/8
Q:1/4=100
M:4/4
K:Ab
V:1 treble 
V:2 treble 
V:3 bass 
V:4 bass 
V:1
 [CE][CE] | [EA]2 [EA]2 [EA][CE][EA][EB] | [Ec]2 [EB]2 [EA]2 [CE][CE] | %3
w: 1.~Tell the|sweet old sto- ry, shout the|glad old song, Let the|
w: 2.~Wan- der-|ers in dark- ness, go- ing|far a- stray, Wait for|
w: 3.~Sing His|love and mer- cy, sound it|ev- er- more, Till the|
 [DB]2 [DB]2 [DB][DE][DB][Ec] | A2 F2 [EA]2 [CE][CE] | [EA]2 [EA]2 [EA][CE][EA][EB] | %6
w: ran- somed swell it, as it|rolls a- long, Set the|cho- rus ring- ing, ju- bi-|
w: you to beck- on to the|up- ward way. Hast- en|with the mess- age, tell it|
w: world shall list- en, won- der|and a- dore, Till the|tune- ful e- choes reach the|
 [Ec]2 [Ed]2 [Ae]2 ff | (z2 A2) [EB]2 x2 | [EA]6 ||"^Refrain" e2 | (z2 A)B x6 | (z2 e2) x6 | %12
w: lant and strong: “Je- sus|* saves,|sweet-|ly|* saves.”||
w: while you may: “Je- sus|* saves,|sweet-|ly|* saves.”||
w: heav’n- ly shore: “Je- sus|* saves,|sweet-|ly|* saves.”||
 (z2 A)c x6 | (z2 [EA])[EB] x6 | [Ec]>[Ec] [Ec][EA] [Ac]2 [Ac][Ad] | [Ae]>[Ae] [Ae][Ac] [Ae]2 ff | %16
w: * He|* saves,|Je- sus saves, He saves, sweet- ly|saves; Let all na- ture join and|
w: ||||
w: ||||
 (z2 A2) [EB]2 x2 | [EA]6 |] %18
w: * sing,|To|
w: ||
w: ||
V:2
 x2 | x8 | x8 | x8 | (CE) F2 x4 | x8 | x8 | (e4 AA) A2 | x6 || x2 | (e6 G2 A2) | (c6 EE E2) | %12
 (e6 G2 A2) | (B6 GF E2) | x8 | x8 | (e4 AA) A2 | x6 |] %18
V:3
 A,A, | [A,C]2 [A,C]2 [A,C]A,[C,A,][E,G,] | A,2 [E,D]2 [A,,C]2 A,A, | %3
w: ~ ~|~ ~ ~ ~ ~ ~|~ ~ ~ ~ ~|
 [E,G,]2 [E,G,]2 [E,G,][E,G,][E,G,][E,G,] | (A,C) [D,D]2 [A,,C]2 A,A, | %5
w: ~ ~ ~ ~ ~ ~|~ * ~ ~ ~ ~|
 [A,C]2 [A,C]2 [A,C]A,[C,A,][E,G,] | A,2 [A,B,]2 [A,C]2 DD | z2 [E,C]2 [E,D]2 x2 | [A,,A,C]6 || %9
w: ~ ~ ~ ~ ~ ~|~ ~ ~ ~ ~|~ ~|~|
 z2 | z2 [B,D]2 [A,C]2 z2 x2 | z2 A,A, A,2 z2 x2 | z2 [B,D]2 [A,C]2 z2 x2 | %13
w: |~ ~|~ He saves,|Je- sus|
 z2 [E,B,][E,A,] G,2 [C,A,][B,,G,] x2 | [A,,A,]>[A,,A,] [A,,A,][A,,C] [A,,C]2 A,[A,B,] | %15
w: saves, He saves, sweet- ly|saves; ~ ~ ~ ~ ~ ~|
 [A,C]>[A,C] [A,C][A,E] [A,C]2 DD | z2 [E,C]2 [E,D]2 x2 | [A,,C]6 |] %18
w: ~ ~ ~ ~ ~ ~ ~|~ ~|~|
V:4
 A,A, | x5 A, x2 | A,2 x2 A,A, x2 | x8 | A,2 x3 A,A, x | x5 A, x2 | A,2 x6 | C4 A,A, x2 | x6 || %9
 x2 | x10 | x2 A,A, A,2 x4 | x10 | x4 (E,D,) x4 | x6 A, x | x8 | C4 A,A, x2 | x6 |] %18

